; generated by Slic3r 1.2.9 on 2018-02-03 at 18:47:36

; external perimeters extrusion width = 0.40mm
; perimeters extrusion width = 0.48mm
; infill extrusion width = 0.48mm
; solid infill extrusion width = 0.48mm
; top infill extrusion width = 0.48mm

M107
M190 S60 ; set bed temperature
M104 S205 ; set temperature
G28 ; home all axes
G1 Z5 F5000 ; lift nozzle

M109 S205 ; wait for temperature to be reached
G21 ; set units to millimeters
G90 ; use absolute coordinates
M82 ; use absolute distances for extrusion
G92 E0
G1 Z0.400 F7800.000
G1 X6.102 Y7.070 F7800.000
G1 X7.858 Y5.570 E0.27422 F1800.000
G1 X10.018 Y4.755 E0.54845
G1 X11.275 Y4.636 E0.69842
G1 X188.725 Y4.636 E21.77330
G1 X191.000 Y5.033 E22.04752
G1 X193.005 Y6.177 E22.32175 F1800.000
G1 X194.505 Y7.933 E22.59597
G1 X195.320 Y10.093 E22.87020
G1 X195.439 Y11.350 E23.02016
G1 X195.439 Y188.650 E44.07723
G1 X195.042 Y190.925 E44.35145
G1 X193.898 Y192.930 E44.62568
G1 X192.142 Y194.430 E44.89990
G1 X189.982 Y195.245 E45.17413
G1 X188.725 Y195.364 E45.32409
G1 X11.275 Y195.364 E66.39897
G1 X9.000 Y194.967 E66.67320
G1 X6.995 Y193.823 E66.94742
G1 X5.495 Y192.067 E67.22165
G1 X4.680 Y189.907 E67.49587
G1 X4.561 Y188.650 E67.64584
G1 X4.561 Y11.350 E88.70291
G1 X4.958 Y9.075 E88.97713
G1 X6.072 Y7.122 E89.24423
G1 E87.24423 F2400.00000
G92 E0
G1 X13.103 Y13.178 F7800.000
G1 E2.00000 F2400.00000
G1 X186.897 Y13.178 E22.64060 F1800.000
G1 X186.897 Y186.822 E43.26338
G1 X13.103 Y186.822 E63.90398
G1 X13.103 Y13.238 E84.51964
G1 X12.389 Y12.464 F7800.000
G1 X187.611 Y12.464 E105.32988 F1800.000
G1 X187.611 Y187.536 E126.12230
G1 X12.389 Y187.536 E146.93253
G1 X12.389 Y12.524 E167.71782
G1 X11.675 Y11.750 F7800.000
G1 X188.325 Y11.750 E188.69769 F1800.000
G1 X188.325 Y188.250 E209.65975
G1 X11.675 Y188.250 E230.63961
G1 X11.675 Y11.810 E251.59454
G1 X12.021 Y11.950 F7800.000
G1 X13.882 Y186.386 F7800.000
G1 X13.539 Y186.043 E251.65223 F1800.000
G1 X13.539 Y185.032 E251.77261
G1 X14.893 Y186.386 E252.00053
G1 X15.905 Y186.386 E252.12090
G1 X13.539 Y184.020 E252.51906
G1 X13.539 Y183.008 E252.63943
G1 X16.917 Y186.386 E253.20782
G1 X17.929 Y186.386 E253.32820
G1 X13.539 Y181.996 E254.06682
G1 X13.539 Y180.985 E254.18720
G1 X18.940 Y186.386 E255.09605
G1 X19.952 Y186.386 E255.21643
G1 X13.539 Y179.973 E256.29552
G1 X13.539 Y178.961 E256.41589
G1 X20.964 Y186.386 E257.66522
G1 X21.976 Y186.386 E257.78559
G1 X13.539 Y177.949 E259.20515
G1 X13.539 Y176.937 E259.32553
G1 X22.988 Y186.386 E260.91532
G1 X23.999 Y186.386 E261.03569
G1 X13.539 Y175.926 E262.79572
G1 X13.539 Y174.914 E262.91609
G1 X25.011 Y186.386 E264.84635
G1 X26.023 Y186.386 E264.96673
G1 X13.539 Y173.902 E267.06722
G1 X13.539 Y172.890 E267.18760
G1 X27.035 Y186.386 E269.45832
G1 X28.046 Y186.386 E269.57870
G1 X13.539 Y171.879 E272.01966
G1 X13.539 Y170.867 E272.14003
G1 X29.058 Y186.386 E274.75123
G1 X30.070 Y186.386 E274.87160
G1 X13.539 Y169.855 E277.65303
G1 X13.539 Y168.843 E277.77341
G1 X31.082 Y186.386 E280.72507
G1 X32.093 Y186.386 E280.84544
G1 X13.539 Y167.832 E283.96734
G1 X13.539 Y166.820 E284.08771
G1 X33.105 Y186.386 E287.37984
G1 X34.117 Y186.386 E287.50022
G1 X13.539 Y165.808 E290.96258
G1 X13.539 Y164.796 E291.08296
G1 X35.129 Y186.386 E294.71555
G1 X36.140 Y186.386 E294.83593
G1 X13.539 Y163.785 E298.63876
G1 X13.539 Y162.773 E298.75913
G1 X37.152 Y186.386 E302.73220
G1 X38.164 Y186.386 E302.85257
G1 X13.539 Y161.761 E306.99587
G1 X13.539 Y160.749 E307.11624
G1 X39.176 Y186.386 E311.42978
G1 X40.187 Y186.386 E311.55015
G1 X13.539 Y159.738 E316.03392
G1 X13.539 Y158.726 E316.15429
G1 X41.199 Y186.386 E320.80829
G1 X42.211 Y186.386 E320.92867
G1 X13.539 Y157.714 E325.75290
G1 X13.539 Y156.702 E325.87327
G1 X43.223 Y186.386 E330.86774
G1 X44.234 Y186.386 E330.98811
G1 X13.539 Y155.691 E336.15282
G1 X13.539 Y154.679 E336.27319
G1 X45.246 Y186.386 E341.60813
G1 X46.258 Y186.386 E341.72850
G1 X13.539 Y153.667 E347.23367
G1 X13.539 Y152.655 E347.35404
G1 X47.270 Y186.386 E353.02945
G1 X48.281 Y186.386 E353.14982
G1 X13.539 Y151.644 E358.99546
G1 X13.539 Y150.632 E359.11583
G1 X49.293 Y186.386 E365.13170
G1 X50.305 Y186.386 E365.25207
G1 X13.539 Y149.620 E371.43818
G1 X13.539 Y148.608 E371.55855
G1 X51.317 Y186.386 E377.91489
G1 X52.328 Y186.386 E378.03526
G1 X13.539 Y147.597 E384.56183
G1 X13.539 Y146.585 E384.68221
G1 X53.340 Y186.386 E391.37901
G1 X54.352 Y186.386 E391.49938
G1 X13.539 Y145.573 E398.36642
G1 X13.539 Y144.561 E398.48680
G1 X55.364 Y186.386 E405.52407
G1 X56.375 Y186.386 E405.64444
G1 X13.539 Y143.550 E412.85195
G1 X13.539 Y142.538 E412.97232
G1 X57.387 Y186.386 E420.35006
G1 X58.399 Y186.386 E420.47044
G1 X13.539 Y141.526 E428.01841
G1 X13.539 Y140.514 E428.13878
G1 X59.411 Y186.386 E435.85699
G1 X60.422 Y186.386 E435.97737
G1 X13.539 Y139.503 E443.86581
G1 X13.539 Y138.491 E443.98618
G1 X61.434 Y186.386 E452.04486
G1 X62.446 Y186.386 E452.16523
G1 X13.539 Y137.479 E460.39414
G1 X13.539 Y136.467 E460.51451
G1 X63.458 Y186.386 E468.91365
G1 X64.470 Y186.386 E469.03403
G1 X13.539 Y135.455 E477.60340
G1 X13.539 Y134.444 E477.72378
G1 X65.481 Y186.386 E486.46339
G1 X66.493 Y186.386 E486.58376
G1 X13.539 Y133.432 E495.49361
G1 X13.539 Y132.420 E495.61398
G1 X67.505 Y186.386 E504.69406
G1 X68.517 Y186.386 E504.81443
G1 X13.539 Y131.408 E514.06474
G1 X13.539 Y130.397 E514.18511
G1 X69.528 Y186.386 E523.60566
G1 X70.540 Y186.386 E523.72603
G1 X13.539 Y129.385 E533.31681
G1 X13.539 Y128.373 E533.43719
G1 X71.552 Y186.386 E543.19820
G1 X72.564 Y186.386 E543.31857
G1 X13.539 Y127.361 E553.24982
G1 X13.539 Y126.350 E553.37019
G1 X73.575 Y186.386 E563.47167
G1 X74.587 Y186.386 E563.59204
G1 X13.539 Y125.338 E573.86376
G1 X13.539 Y124.326 E573.98413
G1 X75.599 Y186.386 E584.42608
G1 X76.611 Y186.386 E584.54645
G1 X13.539 Y123.314 E595.15863
G1 X13.539 Y122.303 E595.27901
G1 X77.622 Y186.386 E606.06142
G1 X78.634 Y186.386 E606.18180
G1 X13.539 Y121.291 E617.13444
G1 X13.539 Y120.279 E617.25482
G1 X79.646 Y186.386 E628.37770
G1 X80.658 Y186.386 E628.49807
G1 X13.539 Y119.267 E639.79119
G1 X13.539 Y118.256 E639.91156
G1 X81.669 Y186.386 E651.37491
G1 X82.681 Y186.386 E651.49529
G1 X13.539 Y117.244 E663.12887
G1 X13.539 Y116.232 E663.24924
G1 X83.693 Y186.386 E675.05306
G1 X84.705 Y186.386 E675.17343
G1 X13.539 Y115.220 E687.14748
G1 X13.539 Y114.209 E687.26786
G1 X85.716 Y186.386 E699.41214
G1 X86.728 Y186.386 E699.53252
G1 X13.539 Y113.197 E711.84703
G1 X13.539 Y112.185 E711.96741
G1 X87.740 Y186.386 E724.45216
G1 X88.752 Y186.386 E724.57253
G1 X13.539 Y111.173 E737.22752
G1 X13.539 Y110.162 E737.34789
G1 X89.763 Y186.386 E750.17311
G1 X90.775 Y186.386 E750.29349
G1 X13.539 Y109.150 E763.28894
G1 X13.539 Y108.138 E763.40931
G1 X91.787 Y186.386 E776.57500
G1 X92.799 Y186.386 E776.69537
G1 X13.539 Y107.126 E790.03129
G1 X13.539 Y106.115 E790.15167
G1 X93.810 Y186.386 E803.65782
G1 X94.822 Y186.386 E803.77820
G1 X13.539 Y105.103 E817.45458
G1 X13.539 Y104.091 E817.57496
G1 X95.834 Y186.386 E831.42158
G1 X96.846 Y186.386 E831.54195
G1 X13.539 Y103.079 E845.55881
G1 X13.539 Y102.068 E845.67918
G1 X97.857 Y186.386 E859.86627
G1 X98.869 Y186.386 E859.98665
G1 X13.539 Y101.056 E874.34397
G1 X13.539 Y100.044 E874.46434
G1 X99.881 Y186.386 E888.99190
G1 X100.893 Y186.386 E889.11227
G1 X13.539 Y99.032 E903.81006
G1 X13.539 Y98.021 E903.93044
G1 X101.904 Y186.386 E918.79846
G1 X102.916 Y186.386 E918.91883
G1 X13.539 Y97.009 E933.95709
G1 X13.539 Y95.997 E934.07747
G1 X103.928 Y186.386 E949.28596
G1 X104.940 Y186.386 E949.40633
G1 X13.539 Y94.985 E964.78506
G1 X13.539 Y93.973 E964.90543
G1 X105.952 Y186.386 E980.45439
G1 X106.963 Y186.386 E980.57476
G1 X13.539 Y92.962 E996.29396
G1 X13.539 Y91.950 E996.41433
G1 X107.975 Y186.386 E1012.30376
G1 X108.987 Y186.386 E1012.42413
G1 X13.539 Y90.938 E1028.48379
G1 X13.539 Y89.926 E1028.60417
G1 X109.999 Y186.386 E1044.83406
G1 X111.010 Y186.386 E1044.95443
G1 X13.539 Y88.915 E1061.35456
G1 X13.539 Y87.903 E1061.47493
G1 X112.022 Y186.386 E1078.04530
G1 X113.034 Y186.386 E1078.16567
G1 X13.539 Y86.891 E1094.90627
G1 X13.539 Y85.879 E1095.02664
G1 X114.046 Y186.386 E1111.93747
G1 X115.057 Y186.386 E1112.05784
G1 X13.539 Y84.868 E1129.13890
G1 X13.539 Y83.856 E1129.25928
G1 X116.069 Y186.386 E1146.51057
G1 X117.081 Y186.386 E1146.63095
G1 X13.539 Y82.844 E1164.05248
G1 X13.539 Y81.832 E1164.17285
G1 X118.093 Y186.386 E1181.76462
G1 X119.104 Y186.386 E1181.88499
G1 X13.539 Y80.821 E1199.64699
G1 X13.539 Y79.809 E1199.76736
G1 X120.116 Y186.386 E1217.69959
G1 X121.128 Y186.386 E1217.81997
G1 X13.539 Y78.797 E1235.92243
G1 X13.539 Y77.785 E1236.04280
G1 X122.140 Y186.386 E1254.31550
G1 X123.151 Y186.386 E1254.43588
G1 X13.539 Y76.774 E1272.87881
G1 X13.539 Y75.762 E1272.99918
G1 X124.163 Y186.386 E1291.61235
G1 X125.175 Y186.386 E1291.73272
G1 X13.539 Y74.750 E1310.51612
G1 X13.539 Y73.738 E1310.63650
G1 X126.187 Y186.386 E1329.59013
G1 X127.198 Y186.386 E1329.71051
G1 X13.539 Y72.727 E1348.83437
G1 X13.539 Y71.715 E1348.95475
G1 X128.210 Y186.386 E1368.24885
G1 X129.222 Y186.386 E1368.36922
G1 X13.539 Y70.703 E1387.83356
G1 X13.539 Y69.691 E1387.95393
G1 X130.234 Y186.386 E1407.58850
G1 X131.245 Y186.386 E1407.70887
G1 X13.539 Y68.680 E1427.51368
G1 X13.539 Y67.668 E1427.63405
G1 X132.257 Y186.386 E1447.60909
G1 X133.269 Y186.386 E1447.72946
G1 X13.539 Y66.656 E1467.87473
G1 X13.539 Y65.644 E1467.99510
G1 X134.281 Y186.386 E1488.31061
G1 X135.292 Y186.386 E1488.43098
G1 X13.539 Y64.633 E1508.91672
G1 X13.539 Y63.621 E1509.03709
G1 X136.304 Y186.386 E1529.69306
G1 X137.316 Y186.386 E1529.81344
G1 X13.539 Y62.609 E1550.63964
G1 X13.539 Y61.597 E1550.76001
G1 X138.328 Y186.386 E1571.75645
G1 X139.339 Y186.386 E1571.87683
G1 X13.539 Y60.586 E1593.04350
G1 X13.539 Y59.574 E1593.16387
G1 X140.351 Y186.386 E1614.50078
G1 X141.363 Y186.386 E1614.62115
G1 X13.539 Y58.562 E1636.12829
G1 X13.539 Y57.550 E1636.24867
G1 X142.375 Y186.386 E1657.92604
G1 X143.386 Y186.386 E1658.04641
G1 X13.539 Y56.539 E1679.89402
G1 X13.539 Y55.527 E1680.01439
G1 X144.398 Y186.386 E1702.03224
G1 X145.410 Y186.386 E1702.15261
G1 X13.539 Y54.515 E1724.34068
G1 X13.539 Y53.503 E1724.46106
G1 X146.422 Y186.386 E1746.81937
G1 X147.433 Y186.386 E1746.93974
G1 X13.539 Y52.491 E1769.46828
G1 X13.539 Y51.480 E1769.58865
G1 X148.445 Y186.386 E1792.28743
G1 X149.457 Y186.386 E1792.40780
G1 X13.539 Y50.468 E1815.27681
G1 X13.539 Y49.456 E1815.39719
G1 X150.469 Y186.386 E1838.43643
G1 X151.481 Y186.386 E1838.55680
G1 X13.539 Y48.444 E1861.76628
G1 X13.539 Y47.433 E1861.88666
G1 X152.492 Y186.386 E1885.26637
G1 X153.504 Y186.386 E1885.38674
G1 X13.539 Y46.421 E1908.93668
G1 X13.539 Y45.409 E1909.05706
G1 X154.516 Y186.386 E1932.77724
G1 X155.528 Y186.386 E1932.89761
G1 X13.539 Y44.397 E1956.78802
G1 X13.539 Y43.386 E1956.90840
G1 X156.539 Y186.386 E1980.96904
G1 X157.551 Y186.386 E1981.08942
G1 X13.539 Y42.374 E2005.32030
G1 X13.539 Y41.362 E2005.44067
G1 X158.563 Y186.386 E2029.84178
G1 X159.575 Y186.386 E2029.96216
G1 X13.539 Y40.350 E2054.53350
G1 X13.539 Y39.339 E2054.65388
G1 X160.586 Y186.386 E2079.39546
G1 X161.598 Y186.386 E2079.51583
G1 X13.539 Y38.327 E2104.42765
G1 X13.539 Y37.315 E2104.54802
G1 X162.610 Y186.386 E2129.63007
G1 X163.622 Y186.386 E2129.75044
G1 X13.539 Y36.303 E2155.00272
G1 X13.539 Y35.292 E2155.12310
G1 X164.633 Y186.386 E2180.54561
G1 X165.645 Y186.386 E2180.66599
G1 X13.539 Y34.280 E2206.25873
G1 X13.539 Y33.268 E2206.37911
G1 X166.657 Y186.386 E2232.14209
G1 X167.669 Y186.386 E2232.26246
G1 X13.539 Y32.256 E2258.19568
G1 X13.539 Y31.245 E2258.31606
G1 X168.680 Y186.386 E2284.41951
G1 X169.692 Y186.386 E2284.53988
G1 X13.539 Y30.233 E2310.81356
G1 X13.539 Y29.221 E2310.93394
G1 X170.704 Y186.386 E2337.37786
G1 X171.716 Y186.386 E2337.49823
G1 X13.539 Y28.209 E2364.11238
G1 X13.539 Y27.198 E2364.23275
G1 X172.727 Y186.386 E2391.01714
G1 X173.739 Y186.386 E2391.13751
G1 X13.539 Y26.186 E2418.09213
G1 X13.539 Y25.174 E2418.21251
G1 X174.751 Y186.386 E2445.33736
G1 X175.763 Y186.386 E2445.45773
G1 X13.539 Y24.162 E2472.75282
G1 X13.539 Y23.151 E2472.87319
G1 X176.774 Y186.386 E2500.33851
G1 X177.786 Y186.386 E2500.45889
G1 X13.539 Y22.139 E2528.09444
G1 X13.539 Y21.127 E2528.21481
G1 X178.798 Y186.386 E2556.02060
G1 X179.810 Y186.386 E2556.14098
G1 X13.539 Y20.115 E2584.11700
G1 X13.539 Y19.104 E2584.23737
G1 X180.821 Y186.386 E2612.38363
G1 X181.833 Y186.386 E2612.50400
G1 X13.539 Y18.092 E2640.82049
G1 X13.539 Y17.080 E2640.94086
G1 X182.845 Y186.386 E2669.42759
G1 X183.857 Y186.386 E2669.54796
G1 X13.539 Y16.068 E2698.20492
G1 X13.539 Y15.057 E2698.32529
G1 X184.868 Y186.386 E2727.15248
G1 X185.880 Y186.386 E2727.27285
G1 X13.539 Y14.045 E2756.27028
G1 X14.120 Y13.614 E2756.35632
G1 X186.461 Y185.955 E2785.35377
G1 X186.461 Y184.944 E2785.47414
G1 X15.131 Y13.614 E2814.30135
G1 X16.143 Y13.614 E2814.42173
G1 X186.461 Y183.932 E2843.07870
G1 X186.461 Y182.920 E2843.19908
G1 X17.155 Y13.614 E2871.68582
G1 X18.167 Y13.614 E2871.80619
G1 X186.461 Y181.908 E2900.12270
G1 X186.461 Y180.897 E2900.24307
G1 X19.178 Y13.614 E2928.38935
G1 X20.190 Y13.614 E2928.50972
G1 X186.461 Y179.885 E2956.48577
G1 X186.461 Y178.873 E2956.60614
G1 X21.202 Y13.614 E2984.41195
G1 X22.214 Y13.614 E2984.53232
G1 X186.461 Y177.861 E3012.16790
G1 X186.461 Y176.850 E3012.28827
G1 X23.225 Y13.614 E3039.75361
G1 X24.237 Y13.614 E3039.87398
G1 X186.461 Y175.838 E3067.16909
G1 X186.461 Y174.826 E3067.28946
G1 X25.249 Y13.614 E3094.41434
G1 X26.261 Y13.614 E3094.53471
G1 X186.461 Y173.814 E3121.48935
G1 X186.461 Y172.803 E3121.60972
G1 X27.272 Y13.614 E3148.39413
G1 X28.284 Y13.614 E3148.51450
G1 X186.461 Y171.791 E3175.12868
G1 X186.461 Y170.779 E3175.24905
G1 X29.296 Y13.614 E3201.69299
G1 X30.308 Y13.614 E3201.81336
G1 X186.461 Y169.767 E3228.08707
G1 X186.461 Y168.755 E3228.20744
G1 X31.320 Y13.614 E3254.31091
G1 X32.331 Y13.614 E3254.43128
G1 X186.461 Y167.744 E3280.36452
G1 X186.461 Y166.732 E3280.48489
G1 X33.343 Y13.614 E3306.24790
G1 X34.355 Y13.614 E3306.36827
G1 X186.461 Y165.720 E3331.96104
G1 X186.461 Y164.708 E3332.08141
G1 X35.367 Y13.614 E3357.50395
G1 X36.378 Y13.614 E3357.62432
G1 X186.461 Y163.697 E3382.87663
G1 X186.461 Y162.685 E3382.99700
G1 X37.390 Y13.614 E3408.07907
G1 X38.402 Y13.614 E3408.19944
G1 X186.461 Y161.673 E3433.11128
G1 X186.461 Y160.661 E3433.23165
G1 X39.414 Y13.614 E3457.97325
G1 X40.425 Y13.614 E3458.09362
G1 X186.461 Y159.650 E3482.66499
G1 X186.461 Y158.638 E3482.78537
G1 X41.437 Y13.614 E3507.18650
G1 X42.449 Y13.614 E3507.30687
G1 X186.461 Y157.626 E3531.53777
G1 X186.461 Y156.614 E3531.65815
G1 X43.461 Y13.614 E3555.71881
G1 X44.472 Y13.614 E3555.83919
G1 X186.461 Y155.603 E3579.72962
G1 X186.461 Y154.591 E3579.84999
G1 X45.484 Y13.614 E3603.57019
G1 X46.496 Y13.614 E3603.69056
G1 X186.461 Y153.579 E3627.24053
G1 X186.461 Y152.567 E3627.36090
G1 X47.508 Y13.614 E3650.74063
G1 X48.519 Y13.614 E3650.86101
G1 X186.461 Y151.556 E3674.07050
G1 X186.461 Y150.544 E3674.19088
G1 X49.531 Y13.614 E3697.23014
G1 X50.543 Y13.614 E3697.35052
G1 X186.461 Y149.532 E3720.21955
G1 X186.461 Y148.520 E3720.33992
G1 X51.555 Y13.614 E3743.03872
G1 X52.566 Y13.614 E3743.15909
G1 X186.461 Y147.509 E3765.68765
G1 X186.461 Y146.497 E3765.80802
G1 X53.578 Y13.614 E3788.16635
G1 X54.590 Y13.614 E3788.28673
G1 X186.461 Y145.485 E3810.47482
G1 X186.461 Y144.473 E3810.59520
G1 X55.602 Y13.614 E3832.61306
G1 X56.613 Y13.614 E3832.73343
G1 X186.461 Y143.462 E3854.58106
G1 X186.461 Y142.450 E3854.70143
G1 X57.625 Y13.614 E3876.37883
G1 X58.637 Y13.614 E3876.49920
G1 X186.461 Y141.438 E3898.00636
G1 X186.461 Y140.426 E3898.12673
G1 X59.649 Y13.614 E3919.46366
G1 X60.660 Y13.614 E3919.58403
G1 X186.461 Y139.415 E3940.75073
G1 X186.461 Y138.403 E3940.87110
G1 X61.672 Y13.614 E3961.86756
G1 X62.684 Y13.614 E3961.98793
G1 X186.461 Y137.391 E3982.81416
G1 X186.461 Y136.379 E3982.93453
G1 X63.696 Y13.614 E4003.59052
G1 X64.707 Y13.614 E4003.71090
G1 X186.461 Y135.368 E4024.19665
G1 X186.461 Y134.356 E4024.31703
G1 X65.719 Y13.614 E4044.63255
G1 X66.731 Y13.614 E4044.75292
