; generated by Slic3r 1.2.9 on 2018-03-11 at 21:11:36

; external perimeters extrusion width = 0.40mm
; perimeters extrusion width = 0.48mm
; infill extrusion width = 0.48mm
; solid infill extrusion width = 0.48mm
; top infill extrusion width = 0.48mm

M107
M190 S60 ; set bed temperature
M104 S205 ; set temperature
G28 ; home all axes
G1 Z5 F5000 ; lift nozzle

M109 S205 ; wait for temperature to be reached
G21 ; set units to millimeters
G90 ; use absolute coordinates
M82 ; use absolute distances for extrusion
G92 E0
G1 Z0.400 F7800.000
G1 X3.230 Y3.783 F7800.000
G1 X4.533 Y2.670 E0.20344 F1800.000
G1 X6.693 Y1.855 E0.47766
G1 X7.950 Y1.736 E0.62763
G1 X192.050 Y1.736 E22.49230
G1 X194.325 Y2.133 E22.76653
G1 X196.330 Y3.277 E23.04075 F1800.000
G1 X197.830 Y5.033 E23.31497
G1 X198.645 Y7.193 E23.58920
G1 X198.764 Y8.450 E23.73917
G1 X198.764 Y191.550 E45.48507
G1 X198.367 Y193.825 E45.75929
G1 X197.223 Y195.830 E46.03352
G1 X195.467 Y197.330 E46.30774
G1 X193.307 Y198.145 E46.58197
G1 X192.050 Y198.264 E46.73194
G1 X7.950 Y198.264 E68.59660
G1 X5.675 Y197.867 E68.87083
G1 X3.670 Y196.723 E69.14505
G1 X2.170 Y194.967 E69.41928
G1 X1.355 Y192.807 E69.69350
G1 X1.236 Y191.550 E69.84347
G1 X1.236 Y8.450 E91.58937
G1 X1.633 Y6.175 E91.86360
G1 X2.777 Y4.170 E92.13782
G1 X3.185 Y3.822 E92.20148
G1 E90.20148 F2400.00000
G92 E0
G1 X43.831 Y82.753 F7800.000
G1 E2.00000 F2400.00000
G1 X46.741 Y81.458 E2.37832 F1800.000
G1 X49.857 Y80.795 E2.75666
G1 X53.043 Y80.795 E3.13506 F1800.000
G1 X56.159 Y81.458 E3.51340
G1 X59.069 Y82.753 E3.89172
G1 X61.647 Y84.626 E4.27013
G1 X63.778 Y86.993 E4.64847
G1 X65.371 Y89.752 E5.02681
G1 X66.355 Y92.782 E5.40513
G1 X66.688 Y95.950 E5.78348
G1 X66.355 Y99.118 E6.16183
G1 X65.371 Y102.148 E6.54016
G1 X63.778 Y104.907 E6.91849
G1 X61.647 Y107.274 E7.29684
G1 X59.069 Y109.147 E7.67524
G1 X56.159 Y110.442 E8.05356
G1 X53.043 Y111.105 E8.43190
G1 X49.857 Y111.105 E8.81030
G1 X46.741 Y110.442 E9.18864
G1 X43.831 Y109.147 E9.56696
G1 X41.253 Y107.274 E9.94537
G1 X39.122 Y104.907 E10.32372
G1 X37.529 Y102.148 E10.70205
G1 X36.545 Y99.118 E11.08037
G1 X36.212 Y95.950 E11.45872
G1 X36.545 Y92.782 E11.83708
G1 X37.529 Y89.752 E12.21540
G1 X39.122 Y86.993 E12.59373
G1 X41.253 Y84.626 E12.97208
G1 X43.782 Y82.788 E13.34336
G1 X44.190 Y83.375 F7800.000
G1 X46.963 Y82.141 E13.70385 F1800.000
G1 X49.932 Y81.509 E14.06437
G1 X52.968 Y81.509 E14.42492 F1800.000
G1 X55.937 Y82.141 E14.78544
G1 X58.710 Y83.375 E15.14594
G1 X61.166 Y85.160 E15.50650
G1 X63.197 Y87.416 E15.86703
G1 X64.715 Y90.044 E16.22753
G1 X65.653 Y92.931 E16.58803
G1 X65.970 Y95.950 E16.94855
G1 X65.653 Y98.969 E17.30907
G1 X64.715 Y101.856 E17.66956
G1 X63.197 Y104.484 E18.03007
G1 X61.166 Y106.740 E18.39059
G1 X58.710 Y108.525 E18.75116
G1 X55.937 Y109.759 E19.11166
G1 X52.968 Y110.391 E19.47217
G1 X49.932 Y110.391 E19.83273
G1 X46.963 Y109.759 E20.19324
G1 X44.190 Y108.525 E20.55374
G1 X41.734 Y106.740 E20.91431
G1 X39.703 Y104.484 E21.27483
G1 X38.185 Y101.856 E21.63534
G1 X37.247 Y98.969 E21.99583
G1 X36.930 Y95.950 E22.35635
G1 X37.247 Y92.931 E22.71687
G1 X38.185 Y90.044 E23.07737
G1 X39.703 Y87.416 E23.43787
G1 X41.734 Y85.160 E23.79840
G1 X44.141 Y83.410 E24.15184
G1 X44.549 Y83.997 F7800.000
G1 X47.185 Y82.823 E24.49451 F1800.000
G1 X50.007 Y82.223 E24.83720
G1 X52.893 Y82.223 E25.17991 F1800.000
G1 X55.715 Y82.823 E25.52260
G1 X58.351 Y83.997 E25.86527
G1 X60.686 Y85.693 E26.20800
G1 X62.616 Y87.838 E26.55070
G1 X64.059 Y90.336 E26.89338
G1 X64.951 Y93.080 E27.23605
G1 X65.252 Y95.950 E27.57874
G1 X64.951 Y98.820 E27.92143
G1 X64.059 Y101.564 E28.26409
G1 X62.616 Y104.062 E28.60677
G1 X60.686 Y106.207 E28.94947
G1 X58.351 Y107.903 E29.29220
G1 X55.715 Y109.076 E29.63487
G1 X52.893 Y109.677 E29.97757
G1 X50.007 Y109.677 E30.32027
G1 X47.185 Y109.076 E30.66297
G1 X44.549 Y107.903 E31.00564
G1 X42.214 Y106.207 E31.34836
G1 X40.284 Y104.062 E31.69106
G1 X38.841 Y101.564 E32.03375
G1 X37.949 Y98.820 E32.37641
G1 X37.648 Y95.950 E32.71910
G1 X37.949 Y93.080 E33.06179
G1 X38.841 Y90.336 E33.40445
G1 X40.284 Y87.838 E33.74714
G1 X42.214 Y85.693 E34.08983
G1 X44.500 Y84.032 E34.42544
G1 X44.563 Y83.597 F7800.000
G1 E32.42544 F2400.00000
G92 E0
G1 X70.108 Y93.324 F7800.000
G1 E2.00000 F2400.00000
G1 X71.596 Y91.096 E2.31821 F1800.000
G1 X73.823 Y89.609 E2.63624
G1 X75.902 Y89.195 E2.88790
G1 X76.450 Y89.086 E2.95431 F1800.000
G1 X79.077 Y89.609 E3.27238
G1 X81.304 Y91.096 E3.59041
G1 X82.792 Y93.324 E3.90862
G1 X83.314 Y95.950 E4.22663
G1 X82.792 Y98.576 E4.54464
G1 X81.304 Y100.804 E4.86286
G1 X79.077 Y102.291 E5.18088
G1 X76.450 Y102.814 E5.49896
G1 X73.823 Y102.291 E5.81703
G1 X71.596 Y100.804 E6.13505
G1 X70.108 Y98.576 E6.45327
G1 X69.586 Y95.950 E6.77128
G1 X70.097 Y93.383 E7.08216
G1 X70.781 Y93.602 F7800.000
G1 X72.111 Y91.611 E7.36662 F1800.000
G1 X74.102 Y90.282 E7.65090
G1 X76.041 Y89.895 E7.88572
G1 X76.450 Y89.814 E7.93524 F1800.000
G1 X78.798 Y90.282 E8.21958
G1 X80.789 Y91.611 E8.50386
G1 X82.119 Y93.602 E8.78831
G1 X82.586 Y95.950 E9.07259
G1 X82.119 Y98.298 E9.35687
G1 X80.789 Y100.289 E9.64132
G1 X78.798 Y101.618 E9.92561
G1 X76.450 Y102.086 E10.20994
G1 X74.102 Y101.618 E10.49428
G1 X72.111 Y100.289 E10.77856
G1 X70.781 Y98.298 E11.06302
G1 X70.314 Y95.950 E11.34730
G1 X70.769 Y93.661 E11.62445
G1 X71.454 Y93.881 F7800.000
G1 X72.626 Y92.126 E11.87515 F1800.000
G1 X74.381 Y90.954 E12.12569
G1 X76.181 Y90.596 E12.34366
G1 X76.450 Y90.542 E12.37629 F1800.000
G1 X78.519 Y90.954 E12.62689
G1 X80.274 Y92.126 E12.87743
G1 X81.446 Y93.881 E13.12813
G1 X81.858 Y95.950 E13.37867
G1 X81.446 Y98.019 E13.62921
G1 X80.274 Y99.774 E13.87991
G1 X78.519 Y100.946 E14.13045
G1 X76.450 Y101.358 E14.38105
G1 X74.381 Y100.946 E14.63166
G1 X72.626 Y99.774 E14.88219
G1 X71.454 Y98.019 E15.13289
G1 X71.042 Y95.950 E15.38344
G1 X71.442 Y93.940 E15.62685
G1 X71.232 Y93.548 F7800.000
G1 X9.778 Y10.278 F7800.000
G1 X190.222 Y10.278 E37.05724 F1800.000
G1 X190.222 Y189.722 E58.36887
G1 X9.778 Y189.722 E79.79925
G1 X9.778 Y10.338 E101.10375
G1 X9.064 Y9.564 F7800.000
G1 X190.936 Y9.564 E122.70377 F1800.000
G1 X190.936 Y190.436 E144.18503
G1 X9.064 Y190.436 E165.78505
G1 X9.064 Y9.624 E187.25918
G1 X8.350 Y8.850 F7800.000
G1 X191.650 Y8.850 E209.02884 F1800.000
G1 X191.650 Y191.150 E230.67973
G1 X8.350 Y191.150 E252.44939
G1 X8.350 Y8.910 E274.09316
G1 X8.696 Y9.050 F7800.000
G1 X10.214 Y19.834 F7800.000
G1 X79.849 Y89.469 E285.81979 F1800.000
G1 X78.355 Y88.988 E286.00664
G1 X10.214 Y20.847 E297.48175
G1 X10.214 Y21.859 E297.60233
G1 X77.091 Y88.736 E308.86450
G1 X76.084 Y88.742 E308.98442
G1 X10.214 Y22.872 E320.07701
G1 X10.214 Y23.884 E320.19759
G1 X75.239 Y88.910 E331.14798
G1 X74.395 Y89.078 E331.25051
G1 X10.214 Y24.897 E342.05868
G1 X10.214 Y25.910 E342.17926
G1 X73.605 Y89.301 E352.85447
G1 X72.998 Y89.707 E352.94141
G1 X10.214 Y26.922 E363.51437
G1 X10.214 Y27.935 E363.63495
G1 X72.391 Y90.112 E374.10565
G1 X71.784 Y90.517 E374.19259
G1 X10.214 Y28.948 E384.56103
G1 X10.214 Y29.960 E384.68161
G1 X71.226 Y90.972 E394.95608
G1 X70.820 Y91.579 E395.04302
G1 X10.214 Y30.973 E405.24921
G1 X10.214 Y31.985 E405.36980
G1 X70.415 Y92.186 E415.50770
G1 X70.009 Y92.794 E415.59464
G1 X64.642 Y87.426 E416.49857
G1 X59.857 Y82.641 F7800.000
G1 X10.214 Y32.998 E424.85847 F1800.000
G1 X10.214 Y34.011 E424.97905
G1 X57.859 Y81.656 E433.00253
G1 X56.169 Y80.979 F7800.000
G1 X10.214 Y35.023 E440.74151 F1800.000
G1 X10.214 Y36.036 E440.86209
G1 X54.883 Y80.705 E448.38446
G1 X53.597 Y80.432 E448.54106
G1 X10.214 Y37.049 E455.84681
G1 X10.214 Y38.061 E455.96740
G1 X52.512 Y80.359 E463.09042
G1 X51.499 Y80.359 E463.21100
G1 X10.214 Y39.074 E470.16349
G1 X10.214 Y40.087 E470.28407
G1 X50.486 Y80.359 E477.06604
G1 X49.557 Y80.442 E477.17718
G1 X10.214 Y41.099 E483.80259
G1 X10.214 Y42.112 E483.92317
G1 X48.722 Y80.620 E490.40796
G1 X47.887 Y80.797 E490.50962
G1 X10.214 Y43.124 E496.85380
G1 X10.214 Y44.137 E496.97438
G1 X47.052 Y80.975 E503.17795
G1 X46.296 Y81.232 E503.27300
G1 X10.214 Y45.150 E509.34931
G1 X10.214 Y46.162 E509.46989
G1 X45.595 Y81.544 E515.42820
G1 X44.895 Y81.856 E515.51954
G1 X10.214 Y47.175 E521.35983
G1 X10.214 Y48.188 E521.48041
G1 X44.194 Y82.168 E527.20270
G1 X43.525 Y82.511 E527.29227
G1 X10.214 Y49.200 E532.90188
G1 X10.214 Y50.213 E533.02246
G1 X42.938 Y82.937 E538.53331
G1 X42.352 Y83.364 E538.61963
G1 X10.214 Y51.225 E544.03173
G1 X10.214 Y52.238 E544.15231
G1 X41.765 Y83.790 E549.46564
G1 X41.179 Y84.216 E549.55197
G1 X10.214 Y53.251 E554.76654
G1 X10.214 Y54.263 E554.88712
G1 X40.668 Y84.718 E560.01572
G1 X40.189 Y85.251 E560.10110
G1 X10.214 Y55.276 E565.14891
G1 X10.214 Y56.289 E565.26949
G1 X39.709 Y85.784 E570.23651
G1 X39.229 Y86.317 E570.32189
G1 X10.214 Y57.301 E575.20812
G1 X10.214 Y58.314 E575.32870
G1 X38.760 Y86.860 E580.13592
G1 X38.389 Y87.502 E580.22419
G1 X10.214 Y59.327 E584.96899
G1 X10.214 Y60.339 E585.08957
G1 X38.019 Y88.144 E589.77194
G1 X37.648 Y88.786 E589.86022
G1 X10.214 Y61.352 E594.48017
G1 X10.214 Y62.364 E594.60075
G1 X37.277 Y89.428 E599.15829
G1 X36.984 Y90.147 E599.25080
G1 X10.214 Y63.377 E603.75895
G1 X10.214 Y64.390 E603.87954
G1 X36.736 Y90.912 E608.34587
G1 X36.487 Y91.676 E608.44156
G1 X10.214 Y65.402 E612.86607
G1 X10.214 Y66.415 E612.98665
G1 X36.239 Y92.440 E617.36933
G1 X36.069 Y93.283 E617.47169
G1 X10.214 Y67.428 E621.82575
G1 X10.214 Y68.440 E621.94633
G1 X35.973 Y94.199 E626.28417
G1 X35.876 Y95.115 E626.39389
G1 X10.214 Y69.453 E630.71551
G1 X10.214 Y70.465 E630.83609
G1 X35.780 Y96.032 E635.14149
G1 X35.883 Y97.147 E635.27485
G1 X10.214 Y71.478 E639.59752
G1 X10.214 Y72.491 E639.71810
G1 X36.002 Y98.279 E644.06080
G1 X36.126 Y99.416 E644.19704
G1 X10.214 Y73.503 E648.56073
G1 X10.214 Y74.516 E648.68132
G1 X36.614 Y100.916 E653.12710
G1 X37.101 Y102.416 E653.31493
G1 X10.214 Y75.529 E657.84280
G1 X10.214 Y76.541 E657.96339
G1 X38.411 Y104.738 E662.71182
G1 X42.635 Y108.962 F7800.000
G1 X122.959 Y189.286 E676.23847 F1800.000
G1 X123.971 Y189.286 E676.35905
G1 X44.840 Y110.155 E689.68488
G1 X46.589 Y110.891 F7800.000
G1 X124.984 Y189.286 E702.88676 F1800.000
G1 X125.997 Y189.286 E703.00734
G1 X47.875 Y111.165 E716.16312
G1 X49.161 Y111.438 E716.31972
G1 X127.009 Y189.286 E729.42942
G1 X128.022 Y189.286 E729.55000
G1 X50.277 Y111.541 E742.64241
G1 X51.289 Y111.541 E742.76299
G1 X129.035 Y189.286 E755.85540
G1 X130.047 Y189.286 E755.97599
G1 X52.302 Y111.541 E769.06840
G1 X53.251 Y111.477 E769.18169
G1 X131.060 Y189.286 E782.28477
G1 X132.072 Y189.286 E782.40535
G1 X54.086 Y111.300 E795.53835
G1 X54.921 Y111.122 E795.64000
G1 X133.085 Y189.286 E808.80292
G1 X134.098 Y189.286 E808.92350
G1 X55.756 Y110.944 E822.11633
G1 X56.527 Y110.702 E822.21250
G1 X135.110 Y189.286 E835.44611
G1 X136.123 Y189.286 E835.56670
G1 X57.227 Y110.390 E848.85283
G1 X57.928 Y110.079 E848.94416
G1 X137.136 Y189.286 E862.28281
G1 X138.148 Y189.286 E862.40339
G1 X58.629 Y109.767 E875.79457
G1 X59.311 Y109.436 E875.88480
G1 X139.161 Y189.286 E889.33170
G1 X140.173 Y189.286 E889.45228
G1 X59.897 Y109.010 E902.97095
G1 X60.483 Y108.583 E903.05727
G1 X141.186 Y189.286 E916.64771
G1 X142.199 Y189.286 E916.76829
G1 X61.070 Y108.157 E930.43049
G1 X61.656 Y107.731 E930.51682
G1 X143.211 Y189.286 E944.25079
G1 X144.224 Y189.286 E944.37138
G1 X62.179 Y107.241 E958.18792
G1 X62.658 Y106.708 E958.27330
G1 X145.237 Y189.286 E972.17959
G1 X146.249 Y189.286 E972.30017
G1 X63.138 Y106.175 E986.29620
G1 X63.618 Y105.642 E986.38158
G1 X147.262 Y189.286 E1000.46734
G1 X148.275 Y189.286 E1000.58792
G1 X64.098 Y105.109 E1014.76342
G1 X64.470 Y104.469 E1014.85163
G1 X149.287 Y189.286 E1029.13499
G1 X150.300 Y189.286 E1029.25557
G1 X64.840 Y103.827 E1043.64704
G1 X65.211 Y103.185 E1043.73531
G1 X151.312 Y189.286 E1058.23489
G1 X152.325 Y189.286 E1058.35547
G1 X65.582 Y102.543 E1072.96316
G1 X65.888 Y101.837 E1073.05481
G1 X153.338 Y189.286 E1087.78137
G1 X154.350 Y189.286 E1087.90195
G1 X66.137 Y101.073 E1102.75721
G1 X66.385 Y100.308 E1102.85291
G1 X155.363 Y189.286 E1117.83688
G1 X156.376 Y189.286 E1117.95746
G1 X66.634 Y99.544 E1133.07013
G1 X66.820 Y98.718 E1133.17096
G1 X157.388 Y189.286 E1148.42271
G1 X158.401 Y189.286 E1148.54329
G1 X66.917 Y97.802 E1163.94936
G1 X67.013 Y96.886 E1164.05907
G1 X159.413 Y189.286 E1179.61944
G1 X160.426 Y189.286 E1179.74003
G1 X73.929 Y102.790 E1194.30617
G1 X75.194 Y103.041 E1194.45969
G1 X161.439 Y189.286 E1208.98343
G1 X162.451 Y189.286 E1209.10401
G1 X76.405 Y103.240 E1223.59429
G1 X77.250 Y103.072 E1223.69682
G1 X163.464 Y189.286 E1238.21542
G1 X164.477 Y189.286 E1238.33600
G1 X78.094 Y102.904 E1252.88292
G1 X78.939 Y102.736 E1252.98545
G1 X165.489 Y189.286 E1267.56068
G1 X166.502 Y189.286 E1267.68127
G1 X79.606 Y102.391 E1282.31458
G1 X80.214 Y101.985 E1282.40152
G1 X167.515 Y189.286 E1297.10310
G1 X168.527 Y189.286 E1297.22368
G1 X80.821 Y101.580 E1311.99354
G1 X81.428 Y101.174 E1312.08048
G1 X169.540 Y189.286 E1326.91861
G1 X170.552 Y189.286 E1327.03919
G1 X81.882 Y100.616 E1341.97132
G1 X82.288 Y100.009 E1342.05826
G1 X171.565 Y189.286 E1357.09263
G1 X172.578 Y189.286 E1357.21322
G1 X82.693 Y99.402 E1372.34984
G1 X83.099 Y98.795 E1372.43678
G1 X173.590 Y189.286 E1387.67564
G1 X174.603 Y189.286 E1387.79622
G1 X83.322 Y98.005 E1403.16803
G1 X83.490 Y97.161 E1403.27057
G1 X175.616 Y189.286 E1418.78461
G1 X176.628 Y189.286 E1418.90519
G1 X83.658 Y96.316 E1434.56146
G1 X83.664 Y95.309 E1434.68137
G1 X177.641 Y189.286 E1450.50722
G1 X178.653 Y189.286 E1450.62780
G1 X83.412 Y94.045 E1466.66654
G1 X82.931 Y92.551 E1466.85337
G1 X179.666 Y189.286 E1483.14361
G1 X180.679 Y189.286 E1483.26419
G1 X10.214 Y18.821 E1511.97069
G1 X10.214 Y17.809 E1512.09127
G1 X181.691 Y189.286 E1540.96830
G1 X182.704 Y189.286 E1541.08888
G1 X10.214 Y16.796 E1570.13644
G1 X10.214 Y15.783 E1570.25702
G1 X183.717 Y189.286 E1599.47511
G1 X184.729 Y189.286 E1599.59569
G1 X10.214 Y14.771 E1628.98430
G1 X10.214 Y13.758 E1629.10489
G1 X185.742 Y189.286 E1658.66403
G1 X186.755 Y189.286 E1658.78461
G1 X10.214 Y12.745 E1688.51428
G1 X10.214 Y11.733 E1688.63486
G1 X187.767 Y189.286 E1718.53506
G1 X188.780 Y189.286 E1718.65565
G1 X10.231 Y10.737 E1748.72354
G1 X11.220 Y10.714 E1748.84139
G1 X189.769 Y189.263 E1778.90930
G1 X189.786 Y188.267 E1779.02789
G1 X12.233 Y10.714 E1808.92811
G1 X13.245 Y10.714 E1809.04869
G1 X189.786 Y187.255 E1838.77839
G1 X189.786 Y186.242 E1838.89897
G1 X14.258 Y10.714 E1868.45813
G1 X15.271 Y10.714 E1868.57871
G1 X189.786 Y185.229 E1897.96735
G1 X189.786 Y184.217 E1898.08793
G1 X16.283 Y10.714 E1927.30604
G1 X17.296 Y10.714 E1927.42662
G1 X189.786 Y183.204 E1956.47420
G1 X189.786 Y182.191 E1956.59478
G1 X18.309 Y10.714 E1985.47183
G1 X19.321 Y10.714 E1985.59241
G1 X189.786 Y181.179 E2014.29894
G1 X189.786 Y180.166 E2014.41952
G1 X20.334 Y10.714 E2042.95551
G1 X21.346 Y10.714 E2043.07609
G1 X189.786 Y179.154 E2071.44156
G1 X189.786 Y178.141 E2071.56214
G1 X22.359 Y10.714 E2099.75708
G1 X23.372 Y10.714 E2099.87766
G1 X189.786 Y177.128 E2127.90207
G1 X189.786 Y176.116 E2128.02265
G1 X24.384 Y10.714 E2155.87653
G1 X25.397 Y10.714 E2155.99711
G1 X189.786 Y175.103 E2183.68047
G1 X189.786 Y174.090 E2183.80105
G1 X26.410 Y10.714 E2211.31387
G1 X27.422 Y10.714 E2211.43445
G1 X189.786 Y173.078 E2238.77675
G1 X189.786 Y172.065 E2238.89733
G1 X28.435 Y10.714 E2266.06910
G1 X29.447 Y10.714 E2266.18968
G1 X189.786 Y171.053 E2293.19092
G1 X189.786 Y170.040 E2293.31150
G1 X30.460 Y10.714 E2320.14221
G1 X31.473 Y10.714 E2320.26279
G1 X189.786 Y169.027 E2346.92298
G1 X189.786 Y168.015 E2347.04356
G1 X32.485 Y10.714 E2373.53321
G1 X33.498 Y10.714 E2373.65379
G1 X189.786 Y167.002 E2399.97292
G1 X189.786 Y165.989 E2400.09350
G1 X34.511 Y10.714 E2426.24210
G1 X35.523 Y10.714 E2426.36268
G1 X189.786 Y164.977 E2452.34075
G1 X189.786 Y163.964 E2452.46133
G1 X36.536 Y10.714 E2478.26887
G1 X37.548 Y10.714 E2478.38945
G1 X189.786 Y162.951 E2504.02646
G1 X189.786 Y161.939 E2504.14705
G1 X38.561 Y10.714 E2529.61353
G1 X39.574 Y10.714 E2529.73411
G1 X189.786 Y160.926 E2555.03007
G1 X189.786 Y159.914 E2555.15065
